dist/images/ico/ico_main_card_01.svg

<svg width="20" height="23" viewBox="0 0 20 23" fill="none" xmlns="http://www.w3.org/2000/svg">
<path d="M14.4444 10.983C14.1222 10.664 13.5889 10.664 13.2667 10.983L8.43333 15.768L6.66667 14.019C6.34444 13.7 5.81111 13.7 5.48889 14.019C5.16667 14.338 5.16667 14.866 5.48889 15.185L7.64444 17.319C8.07778 17.748 8.77778 17.748 9.21111 17.319L14.4333 12.149C14.7667 11.83 14.7667 11.302 14.4444 10.983ZM17.7778 2.7H16.6667V1.6C16.6667 0.995 16.1667 0.5 15.5556 0.5C14.9444 0.5 14.4444 0.995 14.4444 1.6V2.7H5.55556V1.6C5.55556 0.995 5.05556 0.5 4.44444 0.5C3.83333 0.5 3.33333 0.995 3.33333 1.6V2.7H2.22222C0.988889 2.7 0.0111111 3.69 0.0111111 4.9L0 20.3C0 21.51 0.988889 22.5 2.22222 22.5H17.7778C19 22.5 20 21.51 20 20.3V4.9C20 3.69 19 2.7 17.7778 2.7ZM16.6667 20.3H3.33333C2.72222 20.3 2.22222 19.805 2.22222 19.2V8.2H17.7778V19.2C17.7778 19.805 17.2778 20.3 16.6667 20.3Z" fill="#2F7AD3"/>
</svg>

<svg width="20" height="23" fill="none" xmlns="http://www.w3.org/2000/svg"><path d="M14.444 10.983a.844.844 0 00-1.177 0l-4.834 4.785-1.766-1.749a.844.844 0 00-1.178 0 .824.824 0 000 1.166l2.155 2.134a1.114 1.114 0 001.567 0l5.222-5.17a.814.814 0 00.011-1.166zM17.778 2.7h-1.111V1.6c0-.605-.5-1.1-1.111-1.1-.612 0-1.112.495-1.112 1.1v1.1H5.556V1.6c0-.605-.5-1.1-1.112-1.1-.61 0-1.11.495-1.11 1.1v1.1H2.221A2.2 2.2 0 00.012 4.9L0 20.3c0 1.21.989 2.2 2.222 2.2h15.556C19 22.5 20 21.51 20 20.3V4.9c0-1.21-1-2.2-2.222-2.2zm-1.111 17.6H3.333a1.109 1.109 0 01-1.11-1.1v-11h15.555v11c0 .605-.5 1.1-1.111 1.1z" fill="#2F7AD3"/></svg>
